X: 15
T: The Edin.r Defensive Band's March
%R: march
B: Stewart "A Select Collection of Airs, Jigs, Marches and Reels", ca.1784, p.8 #15
F: http://imslp.org/wiki/A_Select_Collection_of_Airs,_Jigs,_Marches_and_Reels_%28Various%29
Z: 2017 John Chambers <jc:trillian.mit.edu>
M: C
L: 1/8
K: C
e>d |\
c2G>F E2e>f | g>agf fedc |\
e>gc'b a>gfe | (Td>c)de d2e>d |\
!f!c>dcB !f!A>BAG | F>GFE D2 c'g |
(ab/c'/) (b/a/).g/.f/ e2Td2 | c2c>c c2 :: e>f |\
g>eg>e c'3b | a>gfe d2(d>e) |\
f>df>d g>ag>f | e>fed c2(c'>b) |
a^gab c'ba^g | a2a>a a2g>f |\
!f!e>fed !f!c>dcB | !f!A>BAG F2(c'>g) |\
(ab/c'/) (b/a/).g/.f/ e2Td2 | c2c>c c2 :|

%%sep 1 1 500
%%sep 1 1 500

